Yosa-Max-Dark/actions/22x22/object-ungroup-calligra.svg

<?xml version="1.0" encoding="UTF-8"?>
<svg id="svg4359" version="1.1" viewBox="0 0 22 22" xmlns="http://www.w3.org/2000/svg">
 <defs id="defs4361">
  <style id="current-color-scheme" type="text/css">.ColorScheme-Text {
        color:#dfdfdf;
      }</style>
 </defs>
 <g id="g831" transform="translate(-4.9999999e-8 .13180289)">
  <path id="path825" d="m7.375005 1.4199883a4.454216 4.454216 0 0 0-4.4550732 4.4550731 4.454216 4.454216 0 0 0 4.4550732 4.4529966 4.454216 4.454216 0 0 0 4.455073-4.4529966 4.454216 4.454216 0 0 0-4.455073-4.4550731zm0 2.138269a2.3184181 2.3184181 0 0 1 2.3188801 2.3168041 2.3184181 2.3184181 0 0 1-2.3188801 2.3168042 2.3184181 2.3184181 0 0 1-2.3168041-2.3168042 2.3184181 2.3184181 0 0 1 2.3168041-2.3168041z" style="fill:#dfdfdf"/>
  <path id="path823" d="m1.8300781 12.380859v7.935547h7.9335938v-7.935547zm2 2h3.9355469v3.935547h-3.9355469z" style="fill:#dfdfdf"/>
  <path id="path826" d="m12.236328 8.5078125v7.9355465h7.933594v-7.9355465zm2 1.9999995h3.935547v3.935547h-3.935547z" style="fill:#dfdfdf"/>
 </g>
</svg>

<?xml version="1.0" encoding="UTF-8" standalone="no"?>
<svg
   xmlns:dc="http://purl.org/dc/elements/1.1/"
   xmlns:cc="http://creativecommons.org/ns#"
   xmlns:rdf="http://www.w3.org/1999/02/22-rdf-syntax-ns#"
   xmlns:svg="http://www.w3.org/2000/svg"
   xmlns="http://www.w3.org/2000/svg"
   version="1.1"
   id="svg4359"
   height="22"
   width="22">
  <defs
     id="defs4361">
    <style
       type="text/css"
       id="current-color-scheme">
      .ColorScheme-Text {
        color:#dfdfdf;
      }
      </style>
  </defs>
  <metadata
     id="metadata4364">
    <rdf:RDF>
      <cc:Work
         rdf:about="">
        <dc:format>image/svg+xml</dc:format>
        <dc:type
           rdf:resource="http://purl.org/dc/dcmitype/StillImage" />
        <dc:title></dc:title>
      </cc:Work>
    </rdf:RDF>
  </metadata>
  <g
     id="g831"
     transform="translate(-4.9999999e-8,0.13180289)">
    <path
       id="path825"
       d="M 7.375005,1.4199883 A 4.454216,4.454216 0 0 0 2.9199318,5.8750614 4.454216,4.454216 0 0 0 7.375005,10.328058 4.454216,4.454216 0 0 0 11.830078,5.8750614 4.454216,4.454216 0 0 0 7.375005,1.4199883 Z m 0,2.138269 A 2.3184181,2.3184181 0 0 1 9.6938851,5.8750614 2.3184181,2.3184181 0 0 1 7.375005,8.1918656 2.3184181,2.3184181 0 0 1 5.0582009,5.8750614 2.3184181,2.3184181 0 0 1 7.375005,3.5582573 Z"
       style="opacity:1;vector-effect:none;fill:#dfdfdf;fill-opacity:1;stroke:none;stroke-width:0.52082425;stroke-linecap:butt;stroke-linejoin:miter;stroke-miterlimit:4;stroke-dasharray:none;stroke-dashoffset:0;stroke-opacity:1" />
    <path
       style="opacity:1;vector-effect:none;fill:#dfdfdf;fill-opacity:1;stroke:none;stroke-width:0.49000007;stroke-linecap:butt;stroke-linejoin:miter;stroke-miterlimit:4;stroke-dasharray:none;stroke-dashoffset:0;stroke-opacity:1"
       d="m 1.8300781,12.380859 v 7.935547 h 7.9335938 v -7.935547 z m 2,2 H 7.765625 v 3.935547 H 3.8300781 Z"
       id="path823" />
    <path
       id="path826"
       d="m 12.236328,8.5078125 v 7.9355465 h 7.933594 V 8.5078125 Z m 2,1.9999995 h 3.935547 v 3.935547 h -3.935547 z"
       style="opacity:1;vector-effect:none;fill:#dfdfdf;fill-opacity:1;stroke:none;stroke-width:0.49000007;stroke-linecap:butt;stroke-linejoin:miter;stroke-miterlimit:4;stroke-dasharray:none;stroke-dashoffset:0;stroke-opacity:1" />
  </g>
</svg>
